X:804
T:Old Man Dillon.
C:F. O'Neill.
B:O'Neill's Music of Ireland
N:O'Neill's - 804
Z:Transcribed by Stephen Foy (shf@access.digex.net)
Z:abc 1.6
Z:Fermata above first repeat sign.
R:Jig
M:6/8
K:A
A/G/|EAA ABd|edB dc2 A|BGG DGG|Bdc BAG|EAA ABd|ede a2 e|
|edc Bcd|ecA A2:|g|gef g2 a|gef g2 d|BGG DGG|Bdc BAG|
|[1 gef g2 a|gef g2 d|edc Bcd|ecA A2:|[2 EAA ABd|ede a2 e|\
edc Bcd|ecA A2|]
